src/24/panel/system-file-manager-panel.svg

<svg xmlns="http://www.w3.org/2000/svg" width="24" height="24" version="1"><defs><style id="current-color-scheme" type="text/css">.ColorScheme-Text{color:#dfdfdf;}.ColorScheme-Highlight{color:#5294e2;}</style></defs><defs><style id="current-color-scheme" type="text/css"></style></defs><path d="M7 4c-.554 0-1 .446-1 1v2c0-.554.446-1 1-1h10c.554 0 1 .446 1 1V5c0-.554-.446-1-1-1zm0 3c-.554 0-1 .446-1 1v1h12V8c0-.554-.446-1-1-1zm-2 3c-.554 0-1 .446-1 1v8c0 .554.446 1 1 1h14c.554 0 1-.446 1-1v-8c0-.554-.446-1-1-1zm5.25 4h3.5c.139 0 .25.111.25.25v.5a.25.25 0 0 1-.25.25h-3.5a.249.249 0 0 1-.25-.25v-.5a.25.25 0 0 1 .25-.25z" fill="currentColor" class="ColorScheme-Text"/></svg>

<svg xmlns="http://www.w3.org/2000/svg" width="24" height="24" version="1">
 <defs>
  <style id="current-color-scheme" type="text/css">
   .ColorScheme-Text { color:#dfdfdf; } .ColorScheme-Highlight { color:#4285f4; }
  </style>
 </defs>
 <path style="fill:currentColor" class="ColorScheme-Text" d="M 9,4 C 8.446,4 8,4.446 8,5 v 1 h 8 V 5 C 16,4.446 15.554,4 15,4 Z M 7,7 C 6.446,7 6,7.446 6,8 V 9 H 18 V 8 C 18,7.446 17.554,7 17,7 Z m -2,3 c -0.554,0 -1,0.446 -1,1 v 8 c 0,0.554 0.446,1 1,1 h 14 c 0.554,0 1,-0.446 1,-1 v -8 c 0,-0.554 -0.446,-1 -1,-1 z m 5.25,4 h 3.5 c 0.139,0 0.25,0.111 0.25,0.25 v 0.5 C 14,14.889 13.888,15 13.75,15 h -3.5 C 10.111,15 10,14.889 10,14.75 v -0.5 C 10,14.111 10.112,14 10.25,14 Z"/>
</svg>
